X: 42081
T: The Cotter Hoose
C: Bert Murray, Aberdeen
R: strathspey
B: RSCDS 42-8
M: C
L: 1/8
%--------------------
K: F
C2 \
|:"F"A,<F F>G A<c f2 | "Gm"D<G "G7"G>F "C7"E<C C>B, \
| "F"A,<F F>G "Dm"A<c f2 | "Gm"(3dcB "G7"(3AGF "C7"(3EDC (3B,A,G, |
| "F"A,<F F>G A<c f2 | "Gm"D<G "G7"G>F "C7"E<C C>E \
| "F"F>A "C/E"(3GAB "F"A>c "Bb"(3Bcd | "F"c>f "C7"e>g "F"a<f f2 ||
||"F"A<c c>B "Am"A<c c>e | "Dm"f>c A>F "D7"A<c c>A \
| "Gm"B<d d>c B<d d>f | "C"(3gfe "G7"(3fed "C7"(3edc (3BAG |
| "F"A<c c>B "Am"A<c c>e | "Dm"f>c A>F "D7"A<c c>A \
| "Gm"B>d "C7"(3GAB "F"A>c "Bb"f>d | "C7"c>A G>c "F"A<F F2 :|
%%center Book42/42081-Cotter_Hoose-1.abc

%%sep 1 1 500
%%sep 1 1 500

